X:1
T:  Tune your Fiddles
C:
R:Strathspey
Q: 128
K:D
M:4/4
L:1/16
|:AA3 d3A Bd3 A4|A2Bc d3A Be3 e3f|AA3 d3A Bd3 A3F|A2Bc d3A Bd3 d4|
AA3 d3A Bd3 A4|A2Bc d3A Be3 e3f|AA3 d3A Bd3 A3F|A2Bc d3f ed3 d3f|
dd3 a3d b3d a3d|A2Bc d3A Be3 e3f|dd3 a3d b3d a3b|((3a2g2f2) e3a fd3 d3A|
dd3 a3d b3d a3d|A2Bc d3A Be3 e3g|((3f2g2a2) ((3g2f2e2) ((3d2e2f2) ((3e2d2c2) |((3B2c2d2) ((3A2B2G2) FD3 D4:|
